X:15823
%11155
T:Moran's Return
M:4/4
L:1/8
C:Traditional
S:"Lead The Knave," Nollaig Casey & Arty McGlynn
R:Air
K:Cmaj
EG|:.A2 .D2 .D2 GF|.E2 .C2 .C2 cd|(e>e) d/2 cB cA GE
%Error : Bar 3 is 17/16 not 4/4
|D2 DE F2 FG|
.A2 .D2 .D2 GF|.E2 .C2 .C2 cd|(e>e) d/2 cB cA GE
%Error : Bar 7 is 17/16 not 4/4
|1 D2 C2 C2 (3DEF:|2 D2
C2
C2 ED|
|:C2 cB c3 d|ed cB A2 GE|A2 d2 d3 e|fe dc d2 cd|
e2 fe d2 ed|cd cA G2 cd|(e>e) e/2 cB cA GE
%Error : Bar 17 is 17/16 not 4/4
||
%Error : Unrecognized character: 1
 D2 C2 C2 ED:|2
%Error : Guitar chord name not properly closed
 D2 C2 "c.c."

%Error : Guitar chord name not properly closed
"C2 |"


